configs/network-icons/gnosis.svg

<svg width="30" height="30" viewBox="0 0 30 30" fill="none" xmlns="http://www.w3.org/2000/svg">
<path d="M4.93818 13.1803C4.93818 12.2727 5.23694 11.4473 5.75341 10.7929L11.2207 16.2577C10.5549 16.7741 9.72826 17.0729 8.83201 17.0729C6.67244 17.0716 4.92679 15.3273 4.93818 13.1803ZM21.2009 17.0602C23.3491 17.0716 25.0947 15.3259 25.0947 13.1676C25.0947 12.2727 24.796 11.4461 24.2795 10.7802L18.8122 16.245C19.4666 16.7614 20.2932 17.0602 21.2009 17.0602ZM25.4276 9.65483C26.2315 10.6194 26.7138 11.8359 26.7138 13.1904C26.7138 16.2323 24.2441 18.7008 21.2009 18.7008C19.8578 18.7008 18.6286 18.2185 17.664 17.4147L15.0108 20.0667L12.3575 17.4147C11.3929 18.2185 10.1751 18.7008 8.82063 18.7008C5.77745 18.7008 3.30773 16.2323 3.30773 13.1904C3.30773 11.8473 3.79004 10.6182 4.59386 9.65483L3.3533 8.41555L2.17098 7.23322C0.792439 9.50546 0 12.1575 0 15.0057C0 23.2946 6.71801 30 14.9993 30C23.2795 30 29.9988 23.2833 29.9988 15.0057C30.0215 12.1474 29.2291 9.49534 27.8505 7.23322L25.4276 9.65483ZM14.9993 17.7716L3.10013 5.87746C3.43305 5.45213 3.78877 5.03945 4.15714 4.64956C6.89017 1.79122 10.7384 0 15.0108 0C19.283 0 23.1415 1.79122 25.8644 4.64956C26.2429 5.02805 26.5999 5.4534 26.8985 5.86606L14.9993 17.7716ZM5.78759 5.77493L15.0095 14.9943L24.2314 5.77493C21.7857 3.30646 18.5235 1.95198 15.0095 1.95198C11.4954 1.95198 8.24592 3.30646 5.78759 5.77493Z" fill="#2E4A3C"/>
</svg>

<svg xmlns="http://www.w3.org/2000/svg" fill="none" viewBox="0 0 30 30">
  <path fill="#2E4A3C" d="M4.938 13.18c0-.907.299-1.733.815-2.387l5.468 5.465a3.875 3.875 0 0 1-2.389.815c-2.16-.001-3.905-1.746-3.894-3.893Zm16.263 3.88c2.148.012 3.894-1.734 3.894-3.892 0-.895-.299-1.722-.816-2.388l-5.467 5.465a3.827 3.827 0 0 0 2.389.815Zm4.227-7.405a5.474 5.474 0 0 1 1.286 3.535 5.514 5.514 0 0 1-9.05 4.225l-2.653 2.652-2.653-2.652a5.514 5.514 0 0 1-9.05-4.224c0-1.344.482-2.573 1.286-3.536l-1.24-1.24L2.17 7.234A14.915 14.915 0 0 0 0 15.006C0 23.295 6.718 30 15 30c8.28 0 14.999-6.717 14.999-14.994.023-2.859-.77-5.51-2.148-7.773l-2.423 2.422Zm-10.429 8.117L3.1 5.877A17.49 17.49 0 0 1 4.157 4.65 14.974 14.974 0 0 1 15.011 0c4.272 0 8.13 1.791 10.853 4.65.379.378.736.803 1.034 1.216L15 17.772ZM5.788 5.775l9.221 9.22 9.222-9.22c-2.445-2.469-5.708-3.823-9.222-3.823-3.514 0-6.763 1.354-9.221 3.823Z"/>
</svg>
